;START_OF_HEADER
;HEADER_VERSION:0.1
;FLAVOR:Griffin
;GENERATOR.NAME:Cura_SteamEngine
;GENERATOR.VERSION:4.11.0
;GENERATOR.BUILD_DATE:2021-09-07
;TARGET_MACHINE.NAME:Ultimaker 3
;EXTRUDER_TRAIN.0.INITIAL_TEMPERATURE:210
;EXTRUDER_TRAIN.0.MATERIAL.VOLUME_USED:35888
;EXTRUDER_TRAIN.0.MATERIAL.GUID:506c9f0d-e3aa-4bd4-b2d2-23e2425b1aa9
;EXTRUDER_TRAIN.0.NOZZLE.DIAMETER:0.4
;EXTRUDER_TRAIN.0.NOZZLE.NAME:AA 0.4
;BUILD_PLATE.TYPE:glass
;BUILD_PLATE.INITIAL_TEMPERATURE:60
;PRINT.TIME:13814
;PRINT.GROUPS:1
;PRINT.SIZE.MIN.X:9
;PRINT.SIZE.MIN.Y:6
;PRINT.SIZE.MIN.Z:0.27
;PRINT.SIZE.MAX.X:197.792
;PRINT.SIZE.MAX.Y:160.15
;PRINT.SIZE.MAX.Z:3.87
;END_OF_HEADER
;Generated with Cura_SteamEngine 4.11.0
T0
M82 ;absolute extrusion mode

G92 E0
M109 S210
G0 F15000 X9 Y6 Z2
G280
G1 F1500 E-6.5
;LAYER_COUNT:19
;LAYER:0
M107
M204 S625
M205 X6 Y6
G1 F600 Z2.27
G0 F4285.7 X38.972 Y55.686 Z2.27
M204 S500
M205 X5 Y5
;TYPE:SKIRT
G1 F600 Z0.27
G1 F1500 E0
G1 F1200 X39.645 Y55.367 E0.01324
G1 X40.348 Y55.122 E0.02647
G1 X41.073 Y54.954 E0.0397
G1 X41.812 Y54.865 E0.05293
G1 X42.272 Y54.85 E0.06111
G1 X190.862 Y54.85 E2.70245
G1 X191.605 Y54.89 E2.71567
G1 X192.34 Y55.009 E2.72891
G1 X193.058 Y55.207 E2.74215
G1 X193.75 Y55.48 E2.75537
G1 X194.409 Y55.826 E2.7686
G1 X195.027 Y56.241 E2.78184
G1 X195.597 Y56.72 E2.79507
G1 X196.112 Y57.257 E2.8083
G1 X196.567 Y57.846 E2.82153
G1 X196.956 Y58.48 E2.83475
G1 X197.275 Y59.153 E2.84799
G1 X197.52 Y59.856 E2.86122
G1 X197.688 Y60.581 E2.87445
G1 X197.777 Y61.32 E2.88768
G1 X197.792 Y61.78 E2.89586
G1 X197.792 Y153.22 E4.5213
G1 X197.752 Y153.963 E4.53453
G1 X197.633 Y154.698 E4.54776
G1 X197.435 Y155.416 E4.561
G1 X197.162 Y156.108 E4.57422
G1 X196.816 Y156.767 E4.58745
G1 X196.401 Y157.385 E4.60069
G1 X195.922 Y157.955 E4.61392
G1 X195.385 Y158.47 E4.62715
G1 X194.796 Y158.925 E4.64038
G1 X194.162 Y159.314 E4.6536
G1 X193.489 Y159.633 E4.66684
G1 X192.786 Y159.878 E4.68007
G1 X192.061 Y160.046 E4.6933
G1 X191.322 Y160.135 E4.70653
G1 X190.862 Y160.15 E4.71472
G1 X42.272 Y160.15 E7.35605
G1 X41.529 Y160.11 E7.36927
G1 X40.794 Y159.991 E7.38251
G1 X40.076 Y159.793 E7.39575
G1 X39.384 Y159.52 E7.40897
G1 X38.725 Y159.174 E7.4222
G1 X38.107 Y158.759 E7.43544
G1 X37.537 Y158.28 E7.44867
G1 X37.022 Y157.743 E7.4619
G1 X36.567 Y157.154 E7.47513
G1 X36.178 Y156.52 E7.48835
G1 X35.859 Y155.847 E7.50159
G1 X35.614 Y155.144 E7.51482
G1 X35.446 Y154.419 E7.52805
G1 X35.357 Y153.68 E7.54128
G1 X35.342 Y153.22 E7.54946
G1 X35.342 Y61.78 E9.1749
G1 X35.382 Y61.037 E9.18813
G1 X35.501 Y60.302 E9.20136
G1 X35.699 Y59.584 E9.2146
G1 X35.972 Y58.892 E9.22782
G1 X36.318 Y58.233 E9.24106
G1 X36.733 Y57.615 E9.25429
G1 X37.212 Y57.045 E9.26752
G1 X37.749 Y56.53 E9.28075
G1 X38.338 Y56.075 E9.29398
G1 X38.972 Y55.686 E9.3072
M204 S625
M205 X6 Y6
G0 F4285.7 X39.37 Y55.953
M204 S500
M205 X5 Y5
G1 F1200 X40.032 Y55.667 E9.32002
G1 X40.722 Y55.457 E9.33284
G1 X41.431 Y55.325 E9.34566
G1 X42.272 Y55.27 E9.36064
G1 X190.862 Y55.27 E12.00198
G1 X191.582 Y55.31 E12.01479
G1 X192.294 Y55.429 E12.02763
G1 X192.988 Y55.627 E12.04045
G1 X193.655 Y55.9 E12.05327
G1 X194.289 Y56.245 E12.0661
G1 X194.88 Y56.658 E12.07891
G1 X195.422 Y57.134 E12.09174
G1 X195.908 Y57.667 E12.10456
G1 X196.332 Y58.251 E12.11739
G1 X196.689 Y58.878 E12.13021
G1 X196.975 Y59.54 E12.14303
G1 X197.185 Y60.23 E12.15585
G1 X197.317 Y60.939 E12.16867
G1 X197.372 Y61.78 E12.18365
G1 X197.372 Y153.22 E13.80909
G1 X197.332 Y153.94 E13.82191
G1 X197.213 Y154.652 E13.83474
G1 X197.015 Y155.346 E13.84757
G1 X196.742 Y156.013 E13.86038
G1 X196.397 Y156.647 E13.87321
G1 X195.984 Y157.238 E13.88603
G1 X195.508 Y157.78 E13.89885
G1 X194.975 Y158.266 E13.91167
G1 X194.391 Y158.69 E13.9245
G1 X193.764 Y159.047 E13.93732
G1 X193.102 Y159.333 E13.95014
G1 X192.412 Y159.543 E13.96296
G1 X191.703 Y159.675 E13.97578
G1 X190.862 Y159.73 E13.99077
G1 X42.272 Y159.73 E16.6321
G1 X41.552 Y159.69 E16.64492
G1 X40.84 Y159.571 E16.65775
G1 X40.146 Y159.373 E16.67058
G1 X39.479 Y159.1 E16.68339
G1 X38.845 Y158.755 E16.69622
G1 X38.254 Y158.342 E16.70904
G1 X37.712 Y157.866 E16.72186
G1 X37.226 Y157.333 E16.73468
G1 X36.802 Y156.749 E16.74751
G1 X36.445 Y156.122 E16.76033
G1 X36.159 Y155.46 E16.77315
G1 X35.949 Y154.77 E16.78597
G1 X35.817 Y154.061 E16.79879
G1 X35.762 Y153.22 E16.81378
G1 X35.762 Y61.78 E18.43921
G1 X35.802 Y61.06 E18.45203
G1 X35.921 Y60.348 E18.46486
G1 X36.119 Y59.654 E18.47769
G1 X36.392 Y58.987 E18.4905
G1 X36.737 Y58.353 E18.50333
G1 X37.15 Y57.762 E18.51615
G1 X37.626 Y57.22 E18.52897
G1 X38.159 Y56.734 E18.54179
G1 X38.743 Y56.31 E18.55462
G1 X39.37 Y55.953 E18.56745
M204 S625
M205 X6 Y6
G0 F4285.7 X39.145 Y56.554
M204 S500
M205 X5 Y5
G1 F1200 X39.764 Y56.231 E18.57986
G1 X40.415 Y55.98 E18.59226
G1 X41.091 Y55.806 E18.60467
G1 X41.782 Y55.71 E18.61707
G1 X42.272 Y55.69 E18.62579
G1 X190.862 Y55.69 E21.26712
G1 X191.559 Y55.73 E21.27953
G1 X192.246 Y55.849 E21.29192
G1 X192.915 Y56.047 E21.30433
G1 X193.558 Y56.319 E21.31674
G1 X194.164 Y56.663 E21.32912
G1 X194.728 Y57.075 E21.34154
G1 X195.241 Y57.548 E21.35394
G1 X195.696 Y58.076 E21.36633
G1 X196.088 Y58.653 E21.37873
G1 X196.411 Y59.272 E21.39114
G1 X196.662 Y59.923 E21.40355
G1 X196.836 Y60.599 E21.41595
G1 X196.932 Y61.29 E21.42836
G1 X196.952 Y61.78 E21.43707
G1 X196.952 Y153.22 E23.06251
G1 X196.912 Y153.917 E23.07492
G1 X196.793 Y154.604 E23.08731
G1 X196.595 Y155.273 E23.09972
G1 X196.323 Y155.916 E23.11213
G1 X195.979 Y156.522 E23.12451
G1 X195.567 Y157.086 E23.13693
G1 X195.094 Y157.599 E23.14933
G1 X194.566 Y158.054 E23.16172
G1 X193.989 Y158.446 E23.17412
G1 X193.37 Y158.769 E23.18653
G1 X192.719 Y159.02 E23.19894
G1 X192.043 Y159.194 E23.21134
G1 X191.352 Y159.29 E23.22374
G1 X190.862 Y159.31 E23.23246
G1 X42.272 Y159.31 E25.87379
G1 X41.575 Y159.27 E25.8862
G1 X40.888 Y159.151 E25.8986
G1 X40.219 Y158.953 E25.911
G1 X39.576 Y158.681 E25.92341
G1 X38.97 Y158.337 E25.9358
G1 X38.406 Y157.925 E25.94821
G1 X37.893 Y157.452 E25.96062
G1 X37.438 Y156.924 E25.97301
G1 X37.046 Y156.347 E25.98541
G1 X36.723 Y155.728 E25.99782
G1 X36.472 Y155.077 E26.01022
G1 X36.298 Y154.401 E26.02263
G1 X36.202 Y153.71 E26.03503
G1 X36.182 Y153.22 E26.04375
G1 X36.182 Y61.78 E27.66918
G1 X36.222 Y61.083 E27.68159
G1 X36.341 Y60.396 E27.69399
G1 X36.539 Y59.727 E27.70639
G1 X36.811 Y59.084 E27.7188
G1 X37.155 Y58.478 E27.73119
G1 X37.567 Y57.914 E27.7436
G1 X38.04 Y57.401 E27.75601
G1 X38.568 Y56.946 E27.7684
G1 X39.145 Y56.554 E27.7808
M204 S625
M205 X6 Y6
G0 F4285.7 X39.546 Y56.808
M204 S500
M205 X5 Y5
G1 F1200 X40.154 Y56.52 E27.79275
G1 X40.792 Y56.306 E27.80472
G1 X41.452 Y56.17 E27.8167
G1 X42.272 Y56.11 E27.83131
G1 X190.862 Y56.11 E30.47264
G1 X191.534 Y56.15 E30.48461
G1 X192.197 Y56.269 E30.49658
G1 X192.84 Y56.466 E30.50854
G1 X193.456 Y56.738 E30.52051
G1 X194.035 Y57.081 E30.53247
G1 X194.57 Y57.49 E30.54444
G1 X195.052 Y57.96 E30.55641
G1 X195.475 Y58.484 E30.56838
G1 X195.834 Y59.054 E30.58035
G1 X196.122 Y59.662 E30.59231
G1 X196.336 Y60.3 E30.60428
G1 X196.472 Y60.96 E30.61625
G1 X196.532 Y61.78 E30.63087
G1 X196.532 Y153.22 E32.2563
G1 X196.492 Y153.892 E32.26827
G1 X196.373 Y154.555 E32.28024
G1 X196.176 Y155.198 E32.2922
G1 X195.904 Y155.814 E32.30417
G1 X195.561 Y156.393 E32.31613
G1 X195.152 Y156.928 E32.3281
G1 X194.682 Y157.41 E32.34007
G1 X194.158 Y157.833 E32.35204
G1 X193.588 Y158.192 E32.36401
G1 X192.98 Y158.48 E32.37597
G1 X192.342 Y158.694 E32.38794
G1 X191.682 Y158.83 E32.39991
G1 X190.862 Y158.89 E32.41453
G1 X42.272 Y158.89 E35.05586
G1 X41.6 Y158.85 E35.06783
G1 X40.937 Y158.731 E35.0798
G1 X40.294 Y158.534 E35.09176
G1 X39.678 Y158.262 E35.10373
G1 X39.099 Y157.919 E35.11569
G1 X38.564 Y157.51 E35.12766
G1 X38.082 Y157.04 E35.13963
G1 X37.659 Y156.516 E35.1516
G1 X37.3 Y155.946 E35.16357
G1 X37.012 Y155.338 E35.17553
G1 X36.798 Y154.7 E35.18749
G1 X36.662 Y154.04 E35.19947
G1 X36.602 Y153.22 E35.21409
G1 X36.602 Y61.78 E36.83952
G1 X36.642 Y61.108 E36.85149
G1 X36.761 Y60.445 E36.86346
G1 X36.958 Y59.802 E36.87542
G1 X37.23 Y59.186 E36.88739
G1 X37.573 Y58.607 E36.89935
G1 X37.982 Y58.072 E36.91132
G1 X38.452 Y57.59 E36.92329
G1 X38.976 Y57.167 E36.93526
G1 X39.546 Y56.808 E36.94723
M204 S625
M205 X6 Y6
G0 F4285.7 X39.943 Y57.075
M204 S500
M205 X5 Y5
G1 F1200 X40.54 Y56.824 E36.95875
G1 X41.164 Y56.648 E36.97027
G1 X41.804 Y56.551 E36.98178
G1 X42.272 Y56.53 E36.9901
G1 X190.862 Y56.53 E39.63144
G1 X191.509 Y56.57 E39.64296
G1 X192.145 Y56.689 E39.65446
G1 X192.762 Y56.886 E39.66598
G1 X193.351 Y57.157 E39.6775
G1 X193.901 Y57.499 E39.68901
G1 X194.405 Y57.906 E39.70053
G1 X194.855 Y58.372 E39.71204
G1 X195.244 Y58.889 E39.72355
G1 X195.567 Y59.451 E39.73507
G1 X195.818 Y60.048 E39.74658
G1 X195.994 Y60.672 E39.7581
G1 X196.091 Y61.312 E39.76961
G1 X196.112 Y61.78 E39.77794
G1 X196.112 Y153.22 E41.40337
G1 X196.072 Y153.867 E41.4149
G1 X195.953 Y154.503 E41.4264
G1 X195.756 Y155.12 E41.43791
G1 X195.485 Y155.709 E41.44944
G1 X195.143 Y156.259 E41.46095
G1 X194.736 Y156.763 E41.47247
G1 X194.27 Y157.213 E41.48398
G1 X193.753 Y157.602 E41.49548
G1 X193.191 Y157.925 E41.507
G1 X192.594 Y158.176 E41.51852
G1 X191.97 Y158.352 E41.53004
G1 X191.33 Y158.449 E41.54155
G1 X190.862 Y158.47 E41.54988
G1 X42.272 Y158.47 E44.19121
G1 X41.625 Y158.43 E44.20273
G1 X40.989 Y158.311 E44.21423
G1 X40.372 Y158.114 E44.22575
G1 X39.783 Y157.843 E44.23727
G1 X39.233 Y157.501 E44.24878
G1 X38.729 Y157.094 E44.2603
G1 X38.279 Y156.628 E44.27181
G1 X37.89 Y156.111 E44.28332
G1 X37.567 Y155.549 E44.29484
G1 X37.316 Y154.952 E44.30635
G1 X37.14 Y154.328 E44.31788
G1 X37.043 Y153.688 E44.32938
G1 X37.022 Y153.22 E44.33771
G1 X37.022 Y61.78 E45.96314
G1 X37.062 Y61.133 E45.97467
G1 X37.181 Y60.497 E45.98617
G1 X37.378 Y59.88 E45.99768
G1 X37.649 Y59.291 E46.00921
G1 X37.991 Y58.741 E46.02072
G1 X38.398 Y58.237 E46.03224
G1 X38.864 Y57.787 E46.04375
G1 X39.381 Y57.398 E46.05525
G1 X39.943 Y57.075 E46.06678
M204 S625
M205 X6 Y6
G0 F4285.7 X39.784 Y57.64
M204 S500
M205 X5 Y5
G1 F1200 X40.336 Y57.355 E46.07782
G1 X40.921 Y57.143 E46.08888
G1 X41.527 Y57.008 E46.09992
G1 X42.272 Y56.95 E46.1132
G1 X190.862 Y56.95 E48.75453
G1 X191.482 Y56.99 E48.76557
G1 X192.092 Y57.109 E48.77662
G1 X192.681 Y57.306 E48.78766
G1 X193.24 Y57.576 E48.7987
G1 X193.76 Y57.916 E48.80974
G1 X194.232 Y58.32 E48.82079
G1 X194.649 Y58.782 E48.83185
G1 X195.002 Y59.292 E48.84287
G1 X195.287 Y59.844 E48.85392
G1 X195.499 Y60.429 E48.86498
G1 X195.634 Y61.035 E48.87601
G1 X195.692 Y61.78 E48.8893
G1 X195.692 Y153.22 E50.51473
G1 X195.652 Y153.84 E50.52578
G1 X195.533 Y154.45 E50.53682
G1 X195.336 Y155.039 E50.54786
G1 X195.066 Y155.598 E50.5589
G1 X194.726 Y156.118 E50.56994
G1 X194.322 Y156.59 E50.58099
G1 X193.86 Y157.007 E50.59205
G1 X193.35 Y157.36 E50.60308
G1 X192.798 Y157.645 E50.61412
G1 X192.213 Y157.857 E50.62518
G1 X191.607 Y157.992 E50.63622
G1 X190.862 Y158.05 E50.6495
G1 X42.272 Y158.05 E53.29083
G1 X41.652 Y158.01 E53.30188
G1 X41.042 Y157.891 E53.31292
G1 X40.453 Y157.694 E53.32396
G1 X39.894 Y157.424 E53.335
G1 X39.374 Y157.084 E53.34604
G1 X38.902 Y156.68 E53.35709
G1 X38.485 Y156.218 E53.36815
G1 X38.132 Y155.708 E53.37918
G1 X37.847 Y155.156 E53.39022
G1 X37.635 Y154.571 E53.40128
G1 X37.5 Y153.965 E53.41232
G1 X37.442 Y153.22 E53.4256
G1 X37.442 Y61.78 E55.05103
G1 X37.482 Y61.16 E55.06208
G1 X37.601 Y60.55 E55.07313
G1 X37.798 Y59.961 E55.08417
G1 X38.068 Y59.402 E55.0952
G1 X38.408 Y58.882 E55.10625
G1 X38.812 Y58.41 E55.11729
G1 X39.274 Y57.993 E55.12835
G1 X39.784 Y57.64 E55.13938
M204 S625
M205 X6 Y6
G0 F4285.7 X40.185 Y57.895
M204 S500
M205 X5 Y5
G1 F1200 X40.725 Y57.65 E55.14992
G1 X41.294 Y57.48 E55.16048
G1 X41.88 Y57.387 E55.17102
G1 X42.272 Y57.37 E55.178
G1 X190.862 Y57.37 E57.81933
G1 X191.454 Y57.41 E57.82988
G1 X192.036 Y57.529 E57.84044
G1 X192.596 Y57.725 E57.85098
G1 X193.125 Y57.995 E57.86154
G1 X193.613 Y58.333 E57.87209
G1 X194.051 Y58.734 E57.88265
G1 X194.431 Y59.19 E57.8932
G1 X194.747 Y59.693 E57.90376
G1 X194.992 Y60.233 E57.9143
G1 X195.162 Y60.802 E57.92486
G1 X195.255 Y61.388 E57.9354
G1 X195.272 Y61.78 E57.94238
G1 X195.272 Y153.22 E59.56781
G1 X195.232 Y153.812 E59.57836
G1 X195.113 Y154.394 E59.58892
G1 X194.917 Y154.954 E59.59947
G1 X194.647 Y155.483 E59.61002
G1 X194.309 Y155.971 E59.62058
G1 X193.908 Y156.409 E59.63113
G1 X193.452 Y156.789 E59.64168
G1 X192.949 Y157.105 E59.65224
G1 X192.409 Y157.35 E59.66278
G1 X191.84 Y157.52 E59.67334
G1 X191.254 Y157.613 E59.68389
G1 X190.862 Y157.63 E59.69086
G1 X42.272 Y157.63 E62.3322
G1 X41.68 Y157.59 E62.34274
G1 X41.098 Y157.471 E62.3533
G1 X40.538 Y157.275 E62.36385
G1 X40.009 Y157.005 E62.37441
G1 X39.521 Y156.667 E62.38496
G1 X39.083 Y156.266 E62.39551
G1 X38.703 Y155.81 E62.40607
G1 X38.387 Y155.307 E62.41663
G1 X38.142 Y154.767 E62.42717
G1 X37.972 Y154.198 E62.43772
G1 X37.879 Y153.612 E62.44827
G1 X37.862 Y153.22 E62.45524
G1 X37.862 Y61.78 E64.08068
G1 X37.902 Y61.188 E64.09123
G1 X38.021 Y60.606 E64.10179
G1 X38.217 Y60.046 E64.11233
G1 X38.487 Y59.517 E64.12289
G1 X38.825 Y59.029 E64.13344
G1 X39.226 Y58.591 E64.144
G1 X39.682 Y58.211 E64.15455
G1 X40.185 Y57.895 E64.16511
M204 S625
M205 X6 Y6
G0 F4285.7 X40.581 Y58.166
M204 S500
M205 X5 Y5
G1 F1200 X41.108 Y57.964 E64.17514
G1 X41.658 Y57.838 E64.18517
G1 X42.272 Y57.79 E64.19612
G1 X190.862 Y57.79 E66.83745
G1 X191.425 Y57.83 E66.84749
G1 X191.977 Y57.949 E66.85752
G1 X192.507 Y58.145 E66.86757
G1 X193.003 Y58.413 E66.87759
G1 X193.457 Y58.749 E66.88763
G1 X193.859 Y59.146 E66.89767
G1 X194.201 Y59.595 E66.90771
G1 X194.476 Y60.089 E66.91776
G1 X194.678 Y60.616 E66.92779
G1 X194.804 Y61.166 E66.93782
G1 X194.852 Y61.78 E66.94877
G1 X194.852 Y153.22 E68.5742
G1 X194.812 Y153.783 E68.58424
G1 X194.693 Y154.335 E68.59427
G1 X194.497 Y154.865 E68.60432
G1 X194.229 Y155.361 E68.61434
G1 X193.893 Y155.815 E68.62438
G1 X193.496 Y156.217 E68.63442
G1 X193.047 Y156.559 E68.64446
G1 X192.553 Y156.834 E68.65451
G1 X192.026 Y157.036 E68.66454
G1 X191.476 Y157.162 E68.67457
G1 X190.862 Y157.21 E68.68552
G1 X42.272 Y157.21 E71.32685
G1 X41.709 Y157.17 E71.33688
G1 X41.157 Y157.051 E71.34692
G1 X40.627 Y156.855 E71.35696
G1 X40.131 Y156.587 E71.36699
G1 X39.677 Y156.251 E71.37703
G1 X39.275 Y155.854 E71.38707
G1 X38.933 Y155.405 E71.3971
G1 X38.658 Y154.911 E71.40715
G1 X38.456 Y154.384 E71.41719
G1 X38.33 Y153.834 E71.42722
G1 X38.282 Y153.22 E71.43816
G1 X38.282 Y61.78 E73.0636
G1 X38.322 Y61.217 E73.07363
G1 X38.441 Y60.665 E73.08367
G1 X38.637 Y60.135 E73.09371
G1 X38.905 Y59.639 E73.10374
G1 X39.241 Y59.185 E73.11378
G1 X39.638 Y58.783 E73.12382
G1 X40.087 Y58.441 E73.13385
G1 X40.581 Y58.166 E73.1439
M204 S625
M205 X6 Y6
G0 F4285.7 X40.49 Y58.687
M204 S500
M205 X5 Y5
G1 F1200 X40.971 Y58.455 E73.15339
G1 X41.482 Y58.299 E73.16289
G1 X42.272 Y58.21 E73.17702
G1 X190.862 Y58.21 E75.81836
G1 X191.395 Y58.25 E75.82786
G1 X191.915 Y58.369 E75.83734
G1 X192.412 Y58.564 E75.84683
G1 X192.875 Y58.831 E75.85633
G1 X193.292 Y59.165 E75.86583
G1 X193.655 Y59.556 E75.87531
G1 X193.955 Y59.998 E75.88481
G1 X194.187 Y60.479 E75.8943
G1 X194.343 Y60.99 E75.9038
G1 X194.432 Y61.78 E75.91793
G1 X194.432 Y153.22 E77.54337
G1 X194.392 Y153.753 E77.55287
G1 X194.273 Y154.273 E77.56235
G1 X194.078 Y154.77 E77.57184
G1 X193.811 Y155.233 E77.58134
G1 X193.477 Y155.65 E77.59084
G1 X193.086 Y156.013 E77.60032
G1 X192.644 Y156.313 E77.60982
G1 X192.163 Y156.545 E77.61931
G1 X191.652 Y156.701 E77.62881
G1 X190.862 Y156.79 E77.64294
