;START_OF_HEADER
;HEADER_VERSION:0.1
;FLAVOR:Griffin
;GENERATOR.NAME:Cura_SteamEngine
;GENERATOR.VERSION:4.11.0
;GENERATOR.BUILD_DATE:2021-09-07
;TARGET_MACHINE.NAME:Ultimaker 3
;EXTRUDER_TRAIN.0.INITIAL_TEMPERATURE:210
;EXTRUDER_TRAIN.0.MATERIAL.VOLUME_USED:36912
;EXTRUDER_TRAIN.0.MATERIAL.GUID:506c9f0d-e3aa-4bd4-b2d2-23e2425b1aa9
;EXTRUDER_TRAIN.0.NOZZLE.DIAMETER:0.4
;EXTRUDER_TRAIN.0.NOZZLE.NAME:AA 0.4
;BUILD_PLATE.TYPE:glass
;BUILD_PLATE.INITIAL_TEMPERATURE:60
;PRINT.TIME:14168
;PRINT.GROUPS:1
;PRINT.SIZE.MIN.X:9
;PRINT.SIZE.MIN.Y:6
;PRINT.SIZE.MIN.Z:0.27
;PRINT.SIZE.MAX.X:197.725
;PRINT.SIZE.MAX.Y:182.943
;PRINT.SIZE.MAX.Z:5.87
;END_OF_HEADER
;Generated with Cura_SteamEngine 4.11.0
T0
M82 ;absolute extrusion mode

G92 E0
M109 S210
G0 F15000 X9 Y6 Z2
G280
G1 F1500 E-6.5
;LAYER_COUNT:19
;LAYER:0
M107
M204 S625
M205 X6 Y6
G1 F600 Z2.27
G0 F4285.7 X37.145 Y34.118 Z2.27
M204 S500
M205 X5 Y5
;TYPE:SKIRT
G1 F600 Z0.27
G1 F1500 E0
G1 F1200 X37.682 Y33.603 E0.01323
G1 X38.271 Y33.148 E0.02646
G1 X38.905 Y32.759 E0.03968
G1 X39.578 Y32.44 E0.05292
G1 X40.281 Y32.195 E0.06615
G1 X41.006 Y32.027 E0.07938
G1 X41.745 Y31.938 E0.09261
G1 X42.205 Y31.923 E0.10079
G1 X99.355 Y31.923 E1.11669
G1 X100.098 Y31.963 E1.12992
G1 X100.833 Y32.082 E1.14315
G1 X101.551 Y32.28 E1.15639
G1 X102.243 Y32.553 E1.16962
G1 X102.902 Y32.899 E1.18285
G1 X103.52 Y33.314 E1.19608
G1 X104.09 Y33.793 E1.20931
G1 X104.605 Y34.33 E1.22254
G1 X105.06 Y34.919 E1.23577
G1 X105.449 Y35.553 E1.24899
G1 X105.768 Y36.226 E1.26223
G1 X106.013 Y36.929 E1.27546
G1 X106.181 Y37.654 E1.28869
G1 X106.27 Y38.393 E1.30193
G1 X106.285 Y38.853 E1.31011
G1 X106.285 Y66.213 E1.79646
G1 X190.795 Y66.213 E3.29871
G1 X191.538 Y66.253 E3.31193
G1 X192.273 Y66.372 E3.32517
G1 X192.991 Y66.57 E3.33841
G1 X193.683 Y66.843 E3.35163
G1 X194.342 Y67.189 E3.36486
G1 X194.96 Y67.604 E3.37809
G1 X195.53 Y68.083 E3.39133
G1 X196.045 Y68.62 E3.40455
G1 X196.5 Y69.209 E3.41779
G1 X196.889 Y69.843 E3.43101
G1 X197.208 Y70.516 E3.44425
G1 X197.453 Y71.219 E3.45748
G1 X197.621 Y71.944 E3.47071
G1 X197.71 Y72.683 E3.48394
G1 X197.725 Y73.143 E3.49212
G1 X197.725 Y141.723 E4.7112
G1 X197.685 Y142.466 E4.72442
G1 X197.566 Y143.201 E4.73766
G1 X197.368 Y143.919 E4.7509
G1 X197.095 Y144.611 E4.76412
G1 X196.749 Y145.27 E4.77735
G1 X196.334 Y145.888 E4.79059
G1 X195.855 Y146.458 E4.80382
G1 X195.318 Y146.973 E4.81705
G1 X194.729 Y147.428 E4.83028
G1 X194.095 Y147.817 E4.8435
G1 X193.422 Y148.136 E4.85674
G1 X192.719 Y148.381 E4.86997
G1 X191.994 Y148.549 E4.8832
G1 X191.255 Y148.638 E4.89643
G1 X190.795 Y148.653 E4.90461
G1 X106.285 Y148.653 E6.40686
G1 X106.285 Y176.013 E6.89321
G1 X106.245 Y176.756 E6.90644
G1 X106.126 Y177.491 E6.91968
G1 X105.928 Y178.209 E6.93292
G1 X105.655 Y178.901 E6.94614
G1 X105.309 Y179.56 E6.95937
G1 X104.894 Y180.178 E6.9726
G1 X104.415 Y180.748 E6.98584
G1 X103.878 Y181.263 E6.99906
G1 X103.289 Y181.718 E7.01229
G1 X102.655 Y182.107 E7.02552
G1 X101.982 Y182.426 E7.03875
G1 X101.279 Y182.671 E7.05199
G1 X100.554 Y182.839 E7.06522
G1 X99.815 Y182.928 E7.07845
G1 X99.355 Y182.943 E7.08663
G1 X42.205 Y182.943 E8.10253
G1 X41.462 Y182.903 E8.11575
G1 X40.727 Y182.784 E8.12899
G1 X40.009 Y182.586 E8.14223
G1 X39.317 Y182.313 E8.15545
G1 X38.658 Y181.967 E8.16868
G1 X38.04 Y181.552 E8.18192
G1 X37.47 Y181.073 E8.19515
G1 X36.955 Y180.536 E8.20838
G1 X36.5 Y179.947 E8.22161
G1 X36.111 Y179.313 E8.23483
G1 X35.792 Y178.64 E8.24807
G1 X35.547 Y177.937 E8.2613
G1 X35.379 Y177.212 E8.27453
G1 X35.29 Y176.473 E8.28776
G1 X35.275 Y176.013 E8.29594
G1 X35.275 Y38.853 E10.7341
G1 X35.315 Y38.11 E10.74732
G1 X35.434 Y37.375 E10.76056
G1 X35.632 Y36.657 E10.7738
G1 X35.905 Y35.965 E10.78702
G1 X36.251 Y35.306 E10.80025
G1 X36.666 Y34.688 E10.81349
G1 X37.145 Y34.118 E10.82672
M204 S625
M205 X6 Y6
G0 F4285.7 X37.559 Y34.293
M204 S500
M205 X5 Y5
G1 F1200 X38.092 Y33.807 E10.83954
G1 X38.676 Y33.383 E10.85237
G1 X39.303 Y33.026 E10.8652
G1 X39.965 Y32.74 E10.87802
G1 X40.655 Y32.53 E10.89084
G1 X41.364 Y32.398 E10.90366
G1 X42.205 Y32.343 E10.91864
G1 X99.355 Y32.343 E11.93453
G1 X100.075 Y32.383 E11.94735
G1 X100.787 Y32.502 E11.96019
G1 X101.481 Y32.7 E11.97301
G1 X102.148 Y32.973 E11.98583
G1 X102.782 Y33.318 E11.99866
G1 X103.373 Y33.731 E12.01147
G1 X103.915 Y34.207 E12.0243
G1 X104.401 Y34.74 E12.03712
G1 X104.825 Y35.324 E12.04995
G1 X105.182 Y35.951 E12.06277
G1 X105.468 Y36.613 E12.07559
G1 X105.678 Y37.303 E12.08841
G1 X105.81 Y38.012 E12.10123
G1 X105.865 Y38.853 E12.11621
G1 X105.865 Y66.633 E12.61003
G1 X190.795 Y66.633 E14.11974
G1 X191.515 Y66.673 E14.13256
G1 X192.227 Y66.792 E14.14539
G1 X192.921 Y66.99 E14.15822
G1 X193.588 Y67.263 E14.17103
G1 X194.222 Y67.608 E14.18386
G1 X194.813 Y68.021 E14.19668
G1 X195.355 Y68.497 E14.2095
G1 X195.841 Y69.03 E14.22232
G1 X196.265 Y69.614 E14.23515
G1 X196.622 Y70.241 E14.24798
G1 X196.908 Y70.903 E14.2608
G1 X197.118 Y71.593 E14.27362
G1 X197.25 Y72.302 E14.28644
G1 X197.305 Y73.143 E14.30142
G1 X197.305 Y141.723 E15.5205
G1 X197.265 Y142.443 E15.53332
G1 X197.146 Y143.155 E15.54615
G1 X196.948 Y143.849 E15.55898
G1 X196.675 Y144.516 E15.57179
G1 X196.33 Y145.15 E15.58462
G1 X195.917 Y145.741 E15.59743
G1 X195.441 Y146.283 E15.61026
G1 X194.908 Y146.769 E15.62308
G1 X194.324 Y147.193 E15.63591
G1 X193.697 Y147.55 E15.64873
G1 X193.035 Y147.836 E15.66155
G1 X192.345 Y148.046 E15.67437
G1 X191.636 Y148.178 E15.68719
G1 X190.795 Y148.233 E15.70217
G1 X105.865 Y148.233 E17.21189
G1 X105.865 Y176.013 E17.7057
G1 X105.825 Y176.733 E17.71852
G1 X105.706 Y177.445 E17.73135
G1 X105.508 Y178.139 E17.74418
G1 X105.235 Y178.806 E17.757
G1 X104.89 Y179.44 E17.76983
G1 X104.477 Y180.031 E17.78264
G1 X104.001 Y180.573 E17.79546
G1 X103.468 Y181.059 E17.80829
G1 X102.884 Y181.483 E17.82112
G1 X102.257 Y181.84 E17.83394
G1 X101.595 Y182.126 E17.84676
G1 X100.905 Y182.336 E17.85958
G1 X100.196 Y182.468 E17.8724
G1 X99.355 Y182.523 E17.88738
G1 X42.205 Y182.523 E18.90328
G1 X41.485 Y182.483 E18.9161
G1 X40.773 Y182.364 E18.92893
G1 X40.079 Y182.166 E18.94176
G1 X39.412 Y181.893 E18.95457
G1 X38.778 Y181.548 E18.9674
G1 X38.187 Y181.135 E18.98022
G1 X37.645 Y180.659 E18.99304
G1 X37.159 Y180.126 E19.00586
G1 X36.735 Y179.542 E19.01869
G1 X36.378 Y178.915 E19.03152
G1 X36.092 Y178.253 E19.04433
G1 X35.882 Y177.563 E19.05716
G1 X35.75 Y176.854 E19.06998
G1 X35.695 Y176.013 E19.08496
G1 X35.695 Y38.853 E21.52311
G1 X35.735 Y38.133 E21.53593
G1 X35.854 Y37.421 E21.54876
G1 X36.052 Y36.727 E21.56159
G1 X36.325 Y36.06 E21.5744
G1 X36.67 Y35.426 E21.58723
G1 X37.083 Y34.835 E21.60005
G1 X37.559 Y34.293 E21.61287
M204 S625
M205 X6 Y6
G0 F4285.7 X37.973 Y34.474
M204 S500
M205 X5 Y5
G1 F1200 X38.501 Y34.019 E21.62526
G1 X39.078 Y33.627 E21.63766
G1 X39.697 Y33.304 E21.65007
G1 X40.348 Y33.053 E21.66247
G1 X41.024 Y32.879 E21.67488
G1 X41.715 Y32.783 E21.68728
G1 X42.205 Y32.763 E21.696
G1 X99.355 Y32.763 E22.7119
G1 X100.052 Y32.803 E22.72431
G1 X100.739 Y32.922 E22.7367
G1 X101.408 Y33.12 E22.7491
G1 X102.051 Y33.392 E22.76151
G1 X102.657 Y33.736 E22.7739
G1 X103.221 Y34.148 E22.78632
G1 X103.734 Y34.621 E22.79872
G1 X104.189 Y35.149 E22.81111
G1 X104.581 Y35.726 E22.82351
G1 X104.904 Y36.345 E22.83592
G1 X105.155 Y36.996 E22.84832
G1 X105.329 Y37.672 E22.86073
G1 X105.425 Y38.363 E22.87313
G1 X105.445 Y38.853 E22.88185
G1 X105.445 Y67.053 E23.38313
G1 X190.795 Y67.053 E24.90031
G1 X191.492 Y67.093 E24.91272
G1 X192.179 Y67.212 E24.92512
G1 X192.848 Y67.41 E24.93752
G1 X193.491 Y67.682 E24.94993
G1 X194.097 Y68.026 E24.96232
G1 X194.661 Y68.438 E24.97473
G1 X195.174 Y68.911 E24.98714
G1 X195.629 Y69.439 E24.99953
G1 X196.021 Y70.016 E25.01193
G1 X196.344 Y70.635 E25.02434
G1 X196.595 Y71.286 E25.03674
G1 X196.769 Y71.962 E25.04915
G1 X196.865 Y72.653 E25.06155
G1 X196.885 Y73.143 E25.07027
G1 X196.885 Y141.723 E26.28934
G1 X196.845 Y142.42 E26.30175
G1 X196.726 Y143.107 E26.31415
G1 X196.528 Y143.776 E26.32655
G1 X196.256 Y144.419 E26.33896
G1 X195.912 Y145.025 E26.35135
G1 X195.5 Y145.589 E26.36376
G1 X195.027 Y146.102 E26.37617
G1 X194.499 Y146.557 E26.38856
G1 X193.922 Y146.949 E26.40096
G1 X193.303 Y147.272 E26.41337
G1 X192.652 Y147.523 E26.42577
G1 X191.976 Y147.697 E26.43818
G1 X191.285 Y147.793 E26.45058
G1 X190.795 Y147.813 E26.4593
G1 X105.445 Y147.813 E27.97648
G1 X105.445 Y176.013 E28.47776
G1 X105.405 Y176.71 E28.49017
G1 X105.286 Y177.397 E28.50256
G1 X105.088 Y178.066 E28.51496
G1 X104.816 Y178.709 E28.52737
G1 X104.472 Y179.315 E28.53976
G1 X104.06 Y179.879 E28.55218
G1 X103.587 Y180.392 E28.56458
G1 X103.059 Y180.847 E28.57697
G1 X102.482 Y181.239 E28.58937
G1 X101.863 Y181.562 E28.60178
G1 X101.212 Y181.813 E28.61418
G1 X100.536 Y181.987 E28.62659
G1 X99.845 Y182.083 E28.63899
G1 X99.355 Y182.103 E28.64771
G1 X42.205 Y182.103 E29.66361
G1 X41.508 Y182.063 E29.67602
G1 X40.821 Y181.944 E29.68841
G1 X40.152 Y181.746 E29.70081
G1 X39.509 Y181.474 E29.71323
G1 X38.903 Y181.13 E29.72561
G1 X38.339 Y180.718 E29.73803
G1 X37.826 Y180.245 E29.75043
G1 X37.371 Y179.717 E29.76282
G1 X36.979 Y179.14 E29.77522
G1 X36.656 Y178.521 E29.78763
G1 X36.405 Y177.87 E29.80004
G1 X36.231 Y177.194 E29.81244
G1 X36.135 Y176.503 E29.82484
G1 X36.115 Y176.013 E29.83356
G1 X36.115 Y38.853 E32.27171
G1 X36.155 Y38.156 E32.28413
G1 X36.274 Y37.469 E32.29652
G1 X36.472 Y36.8 E32.30892
G1 X36.744 Y36.157 E32.32133
G1 X37.088 Y35.551 E32.33372
G1 X37.5 Y34.987 E32.34613
G1 X37.973 Y34.474 E32.35854
M204 S625
M205 X6 Y6
G0 F4285.7 X37.915 Y35.145
M204 S500
M205 X5 Y5
G1 F1200 X38.385 Y34.663 E32.37051
G1 X38.909 Y34.24 E32.38248
G1 X39.479 Y33.881 E32.39445
G1 X40.087 Y33.593 E32.40641
G1 X40.725 Y33.379 E32.41837
G1 X41.385 Y33.243 E32.43035
G1 X42.205 Y33.183 E32.44497
G1 X99.355 Y33.183 E33.46086
G1 X100.027 Y33.223 E33.47283
G1 X100.69 Y33.342 E33.4848
G1 X101.333 Y33.539 E33.49676
G1 X101.949 Y33.811 E33.50873
G1 X102.528 Y34.154 E33.52069
G1 X103.063 Y34.563 E33.53266
G1 X103.545 Y35.033 E33.54463
G1 X103.968 Y35.557 E33.5566
G1 X104.327 Y36.127 E33.56857
G1 X104.615 Y36.735 E33.58053
G1 X104.829 Y37.373 E33.59249
G1 X104.965 Y38.033 E33.60447
G1 X105.025 Y38.853 E33.61909
G1 X105.025 Y67.473 E34.12784
G1 X190.795 Y67.473 E35.65248
G1 X191.467 Y67.513 E35.66445
G1 X192.13 Y67.632 E35.67642
G1 X192.773 Y67.829 E35.68838
G1 X193.389 Y68.101 E35.70035
G1 X193.968 Y68.444 E35.71231
G1 X194.503 Y68.853 E35.72428
G1 X194.985 Y69.323 E35.73625
G1 X195.408 Y69.847 E35.74822
G1 X195.767 Y70.417 E35.76019
G1 X196.055 Y71.025 E35.77215
G1 X196.269 Y71.663 E35.78411
G1 X196.405 Y72.323 E35.79609
G1 X196.465 Y73.143 E35.81071
G1 X196.465 Y141.723 E37.02978
G1 X196.425 Y142.395 E37.04175
G1 X196.306 Y143.058 E37.05372
G1 X196.109 Y143.701 E37.06568
G1 X195.837 Y144.317 E37.07765
G1 X195.494 Y144.896 E37.08961
G1 X195.085 Y145.431 E37.10158
G1 X194.615 Y145.913 E37.11355
G1 X194.091 Y146.336 E37.12552
G1 X193.521 Y146.695 E37.13749
G1 X192.913 Y146.983 E37.14945
G1 X192.275 Y147.197 E37.16142
G1 X191.615 Y147.333 E37.17339
G1 X190.795 Y147.393 E37.18801
G1 X105.025 Y147.393 E38.71266
G1 X105.025 Y176.013 E39.2214
G1 X104.985 Y176.685 E39.23337
G1 X104.866 Y177.348 E39.24534
G1 X104.669 Y177.991 E39.2573
G1 X104.397 Y178.607 E39.26927
G1 X104.054 Y179.186 E39.28123
G1 X103.645 Y179.721 E39.2932
G1 X103.175 Y180.203 E39.30517
G1 X102.651 Y180.626 E39.31714
G1 X102.081 Y180.985 E39.32911
G1 X101.473 Y181.273 E39.34107
G1 X100.835 Y181.487 E39.35304
G1 X100.175 Y181.623 E39.36501
G1 X99.355 Y181.683 E39.37963
G1 X42.205 Y181.683 E40.39553
G1 X41.533 Y181.643 E40.40749
G1 X40.87 Y181.524 E40.41947
G1 X40.227 Y181.327 E40.43142
G1 X39.611 Y181.055 E40.44339
G1 X39.032 Y180.712 E40.45535
G1 X38.497 Y180.303 E40.46732
G1 X38.015 Y179.833 E40.47929
G1 X37.592 Y179.309 E40.49126
G1 X37.233 Y178.739 E40.50324
G1 X36.945 Y178.131 E40.5152
G1 X36.731 Y177.493 E40.52716
G1 X36.595 Y176.833 E40.53914
G1 X36.535 Y176.013 E40.55375
G1 X36.535 Y38.853 E42.99191
G1 X36.575 Y38.181 E43.00387
G1 X36.694 Y37.518 E43.01585
G1 X36.891 Y36.875 E43.0278
G1 X37.163 Y36.259 E43.03977
G1 X37.506 Y35.68 E43.05173
G1 X37.915 Y35.145 E43.0637
M204 S625
M205 X6 Y6
G0 F4285.7 X38.331 Y35.31
M204 S500
M205 X5 Y5
G1 F1200 X38.797 Y34.86 E43.07522
G1 X39.314 Y34.471 E43.08672
G1 X39.876 Y34.148 E43.09824
G1 X40.473 Y33.897 E43.10975
G1 X41.097 Y33.721 E43.12128
G1 X41.737 Y33.624 E43.13279
G1 X42.205 Y33.603 E43.14111
G1 X99.355 Y33.603 E44.15701
G1 X100.002 Y33.643 E44.16853
G1 X100.638 Y33.762 E44.18004
G1 X101.255 Y33.959 E44.19155
G1 X101.844 Y34.23 E44.20307
G1 X102.394 Y34.572 E44.21459
G1 X102.898 Y34.979 E44.2261
G1 X103.348 Y35.445 E44.23762
G1 X103.737 Y35.962 E44.24912
G1 X104.06 Y36.524 E44.26064
G1 X104.311 Y37.121 E44.27215
G1 X104.487 Y37.745 E44.28368
G1 X104.584 Y38.385 E44.29518
G1 X104.605 Y38.853 E44.30351
G1 X104.605 Y67.893 E44.81973
G1 X190.795 Y67.893 E46.35184
G1 X191.442 Y67.933 E46.36336
G1 X192.078 Y68.052 E46.37486
G1 X192.695 Y68.249 E46.38638
G1 X193.284 Y68.52 E46.3979
G1 X193.834 Y68.862 E46.40941
G1 X194.338 Y69.269 E46.42093
G1 X194.788 Y69.735 E46.43244
G1 X195.177 Y70.252 E46.44395
G1 X195.5 Y70.814 E46.45547
G1 X195.751 Y71.411 E46.46698
G1 X195.927 Y72.035 E46.47851
G1 X196.024 Y72.675 E46.49001
G1 X196.045 Y73.143 E46.49834
G1 X196.045 Y141.723 E47.71742
G1 X196.005 Y142.37 E47.72894
G1 X195.886 Y143.006 E47.74044
G1 X195.689 Y143.623 E47.75195
G1 X195.418 Y144.212 E47.76348
G1 X195.076 Y144.762 E47.77499
G1 X194.669 Y145.266 E47.78651
G1 X194.203 Y145.716 E47.79802
G1 X193.686 Y146.105 E47.80952
G1 X193.124 Y146.428 E47.82105
G1 X192.527 Y146.679 E47.83256
G1 X191.903 Y146.855 E47.84408
G1 X191.263 Y146.952 E47.85559
G1 X190.795 Y146.973 E47.86392
G1 X104.605 Y146.973 E49.39603
G1 X104.605 Y176.013 E49.91224
G1 X104.565 Y176.66 E49.92377
G1 X104.446 Y177.296 E49.93527
G1 X104.249 Y177.913 E49.94678
G1 X103.978 Y178.502 E49.95831
G1 X103.636 Y179.052 E49.96982
G1 X103.229 Y179.556 E49.98133
G1 X102.763 Y180.006 E49.99285
G1 X102.246 Y180.395 E50.00435
G1 X101.684 Y180.718 E50.01587
G1 X101.087 Y180.969 E50.02739
G1 X100.463 Y181.145 E50.03891
G1 X99.823 Y181.242 E50.05042
G1 X99.355 Y181.263 E50.05874
G1 X42.205 Y181.263 E51.07464
G1 X41.558 Y181.223 E51.08616
G1 X40.922 Y181.104 E51.09767
G1 X40.305 Y180.907 E51.10918
G1 X39.716 Y180.636 E51.1207
G1 X39.166 Y180.294 E51.13222
G1 X38.662 Y179.887 E51.14373
G1 X38.212 Y179.421 E51.15525
G1 X37.823 Y178.904 E51.16675
G1 X37.5 Y178.342 E51.17827
G1 X37.249 Y177.745 E51.18978
G1 X37.073 Y177.121 E51.20131
G1 X36.976 Y176.481 E51.21282
G1 X36.955 Y176.013 E51.22114
G1 X36.955 Y38.853 E53.6593
G1 X36.995 Y38.206 E53.67082
G1 X37.114 Y37.57 E53.68232
G1 X37.311 Y36.953 E53.69383
G1 X37.582 Y36.364 E53.70536
G1 X37.924 Y35.814 E53.71687
G1 X38.331 Y35.31 E53.72839
M204 S625
M205 X6 Y6
G0 F4285.7 X38.745 Y35.483
M204 S500
M205 X5 Y5
G1 F1200 X39.207 Y35.066 E53.73945
G1 X39.717 Y34.713 E53.75048
G1 X40.269 Y34.428 E53.76152
G1 X40.854 Y34.216 E53.77258
G1 X41.46 Y34.081 E53.78362
G1 X42.205 Y34.023 E53.7969
G1 X99.355 Y34.023 E54.8128
G1 X99.975 Y34.063 E54.82384
G1 X100.585 Y34.182 E54.83489
G1 X101.174 Y34.379 E54.84593
G1 X101.733 Y34.649 E54.85696
G1 X102.253 Y34.989 E54.86801
G1 X102.725 Y35.393 E54.87905
G1 X103.142 Y35.855 E54.89011
G1 X103.495 Y36.365 E54.90114
G1 X103.78 Y36.917 E54.91218
G1 X103.992 Y37.502 E54.92324
G1 X104.127 Y38.108 E54.93428
G1 X104.185 Y38.853 E54.94756
G1 X104.185 Y68.313 E55.47124
G1 X190.795 Y68.313 E57.01082
G1 X191.415 Y68.353 E57.02186
